dist/img/scroll_down.svg

<svg width="30" height="48" viewBox="0 0 30 48" fill="none" xmlns="http://www.w3.org/2000/svg">
<path d="M18.05 0.75H11.95C5.85003 0.75 0.900024 5.7 0.900024 11.8V36.2C0.900024 42.3 5.85003 47.25 11.95 47.25H18.05C24.15 47.25 29.1 42.3 29.1 36.2V11.8C29.1 5.7 24.15 0.75 18.05 0.75ZM26.35 36.2C26.35 40.8 22.6 44.5 18.05 44.5H11.95C7.35003 44.5 3.65002 40.75 3.65002 36.2V11.8C3.65002 7.2 7.35003 3.5 11.95 3.5H18.05C22.65 3.5 26.35 7.25 26.35 11.8V36.2Z" fill="white"/>
<path d="M19.0001 32.7L15.0001 36.7L11.0001 32.7C10.4501 32.15 9.60007 32.15 9.05007 32.7C8.50007 33.25 8.50007 34.1 9.05007 34.65L13.7001 39.3C14.0501 39.65 14.5501 39.85 15.0001 39.85C15.5001 39.85 15.9501 39.65 16.3501 39.3L21.0001 34.65C21.5501 34.1 21.5501 33.25 21.0001 32.7C20.4501 32.15 19.5501 32.2 19.0001 32.7Z" fill="white"/>
<path d="M15 11.55C15.9665 11.55 16.75 10.7665 16.75 9.8C16.75 8.83351 15.9665 8.05 15 8.05C14.0335 8.05 13.25 8.83351 13.25 9.8C13.25 10.7665 14.0335 11.55 15 11.55Z" fill="white"/>
<path d="M15 19.3C15.9665 19.3 16.75 18.5165 16.75 17.55C16.75 16.5835 15.9665 15.8 15 15.8C14.0335 15.8 13.25 16.5835 13.25 17.55C13.25 18.5165 14.0335 19.3 15 19.3Z" fill="white"/>
<path d="M15 27.05C15.9665 27.05 16.75 26.2665 16.75 25.3C16.75 24.3335 15.9665 23.55 15 23.55C14.0335 23.55 13.25 24.3335 13.25 25.3C13.25 26.2665 14.0335 27.05 15 27.05Z" fill="white"/>
</svg>

<svg fill="none" xmlns="http://www.w3.org/2000/svg" viewBox="0 0 30 48"><path d="M18.05.75h-6.1C5.85.75.9 5.7.9 11.8v24.4c0 6.1 4.95 11.05 11.05 11.05h6.1c6.1 0 11.05-4.95 11.05-11.05V11.8C29.1 5.7 24.15.75 18.05.75zm8.3 35.45c0 4.6-3.75 8.3-8.3 8.3h-6.1c-4.6 0-8.3-3.75-8.3-8.3V11.8c0-4.6 3.7-8.3 8.3-8.3h6.1c4.6 0 8.3 3.75 8.3 8.3v24.4z" fill="#fff"/><path d="M19 32.7l-4 4-4-4c-.55-.55-1.4-.55-1.95 0s-.55 1.4 0 1.95l4.65 4.65c.35.35.85.55 1.3.55.5 0 .95-.2 1.35-.55L21 34.65c.55-.55.55-1.4 0-1.95s-1.45-.5-2 0zm-4-21.15a1.75 1.75 0 100-3.5 1.75 1.75 0 000 3.5zm0 7.75a1.75 1.75 0 100-3.5 1.75 1.75 0 000 3.5zm0 7.75a1.75 1.75 0 100-3.5 1.75 1.75 0 000 3.5z" fill="#fff"/></svg>
